svgs/samsung_notes.svg

<svg width="24" height="24" viewBox="0 0 24 24" fill="none" xmlns="http://www.w3.org/2000/svg">
<path d="M2.4364 4.18127C3.35315 4.55188 4 5.45041 4 6.5C4 7.70947 3.14111 8.71835 2 8.94998V10.05C3.14111 10.2816 4 11.2905 4 12.5C4 13.7095 3.14111 14.7184 2 14.95V16.05C3.14111 16.2816 4 17.2905 4 18.5C4 19.352 3.57379 20.1045 2.92291 20.5558C3.65662 21.4382 4.7627 22 6 22H13V17.3877C13 14.6262 15.2386 12.3877 18 12.3877H22V6C22 3.79086 20.2092 2 18 2H6C4.44574 2 3.09857 2.88641 2.4364 4.18127Z" fill="#FFF1C0"/>
<path d="M21 14.5625V14.3877H18C16.3431 14.3877 15 15.7308 15 17.3877V20.9375L21 14.5625Z" fill="#FFF1C0"/>
</svg>

<svg xmlns="http://www.w3.org/2000/svg" width="24" height="24" fill="none" viewBox="0 0 24 24"><path fill="#FFF1C0" d="M2.436 4.181A2.5 2.5 0 0 1 2 8.95v1.1a2.5 2.5 0 0 1 0 4.9v1.1a2.5 2.5 0 0 1 .923 4.506A3.992 3.992 0 0 0 6 22h7v-4.612a5 5 0 0 1 5-5h4V6a4 4 0 0 0-4-4H6a4 4 0 0 0-3.564 2.181"/><path fill="#FFF1C0" d="M21 14.563v-.175h-3a3 3 0 0 0-3 3v3.55l6-6.375"/></svg>
